packages/icons/svg/Fill/layers.svg

<svg width="24" height="24" viewBox="0 0 24 24" fill="none" xmlns="http://www.w3.org/2000/svg">
<g id="Icon/Fill/layers">
<path id="Mask" fill-rule="evenodd" clip-rule="evenodd" d="M3.2407 7.28709L11.7617 11.9231C11.9087 12.0031 12.0907 12.0031 12.2387 11.9231L20.7597 7.28709C21.1027 7.10009 21.0727 6.62209 20.7077 6.47509L12.1877 3.03609C12.0677 2.98809 11.9317 2.98809 11.8117 3.03609L3.2917 6.47509C2.9277 6.62209 2.8977 7.10009 3.2407 7.28709ZM20.708 10.6563L18.878 9.87629L12.239 13.4883C12.091 13.5683 11.909 13.5683 11.761 13.4883L5.122 9.87629L3.292 10.6563C2.927 10.8113 2.897 11.3173 3.241 11.5143L11.761 16.4113C11.909 16.4963 12.091 16.4963 12.239 16.4113L20.759 11.5143C21.103 11.3173 21.073 10.8113 20.708 10.6563ZM19.151 14.4227L20.708 15.0967C21.073 15.2547 21.103 15.7677 20.759 15.9677L12.239 20.9357C12.091 21.0217 11.909 21.0217 11.761 20.9357L3.241 15.9677C2.897 15.7677 2.927 15.2547 3.292 15.0967L4.849 14.4227L11.761 18.1837C11.909 18.2637 12.091 18.2637 12.239 18.1837L19.151 14.4227Z" fill="#000000"/>
</g>
</svg>

<svg fill="none" height="24" viewBox="0 0 24 24" width="24" xmlns="http://www.w3.org/2000/svg"><path clip-rule="evenodd" d="m3.24069 7.287 8.52101 4.636c.147.08.329.08.477 0l8.521-4.636c.343-.187.313-.665-.052-.812l-8.52-3.439c-.12-.048-.256-.048-.376 0l-8.52001 3.439c-.364.147-.394.625-.051.812zm17.46731 3.3693-1.83-.78-6.639 3.612c-.148.08-.33.08-.478 0l-6.63901-3.612-1.83.78c-.365.155-.395.661-.051.858l8.52001 4.897c.148.085.33.085.478 0l8.52-4.897c.344-.197.314-.703-.051-.858zm-1.557 3.7662 1.557.674c.365.158.395.671.051.871l-8.52 4.968c-.148.086-.33.086-.478 0l-8.52001-4.968c-.344-.2-.314-.713.051-.871l1.557-.674 6.91201 3.761c.148.08.33.08.478 0z" fill="#6b7280" fill-rule="evenodd"/></svg>
